src/amo/components/CategoryIcon/img/foxkeh.svg

<svg xmlns="http://www.w3.org/2000/svg" width="64" height="64" viewBox="0 0 64 64">
  <g class="one" fill="#0F1126">
    <path d="M33.0191571,47.5495941 L33.0191571,49.8020438 C33.0191571,51.3143031 34.245084,52.5402299 35.7573436,52.5402299 C37.2696032,52.5402299 38.49553,51.314303 38.49553,49.8020434 C38.49553,49.1474837 39.0261555,48.6168582 39.6807152,48.6168582 C40.3352749,48.6168582 40.8659004,49.1474837 40.8659004,49.8020434 C40.8659004,52.6234224 38.5787226,54.9106003 35.7573436,54.9106003 C34.2263897,54.9106003 32.8527277,54.2371566 31.9164349,53.1703467 C30.9807026,54.3509826 29.5340922,55.108299 27.9106003,55.108299 C25.0892212,55.108299 22.8020434,52.8211211 22.8020434,49.9997421 C22.8020434,49.3451824 23.3326689,48.8145569 23.9872286,48.8145569 C24.6417883,48.8145569 25.1724138,49.3451824 25.1724138,49.9997421 C25.1724138,51.5120017 26.3983406,52.7379286 27.9106003,52.7379286 C29.4228599,52.7379286 30.6487867,51.5120017 30.6487867,49.9997421 L30.6487867,47.6748548 C30.1094932,47.4890196 29.6116125,47.1527229 29.2222049,46.6659646 L25.4569992,41.959455 C23.8086187,39.899007 25.2756082,36.8467433 27.9142803,36.8467433 L35.4447017,36.8467433 C38.08337,36.8467433 39.5503623,39.8990008 37.9019977,41.9594487 L34.1367859,46.6659659 C33.8229857,47.0582152 33.4387453,47.3527579 33.0191571,47.5495941 Z M22.0255428,34.3512133 C19.2041648,34.3512133 16.916986,32.0640345 16.916986,29.2426564 C16.916986,26.4212784 19.2041648,24.1340996 22.0255428,24.1340996 C24.8469208,24.1340996 27.1340996,26.4212784 27.1340996,29.2426564 C27.1340996,32.0640345 24.8469208,34.3512133 22.0255428,34.3512133 Z M22.0255428,31.9808429 C23.5378014,31.9808429 24.7637292,30.7549151 24.7637292,29.2426564 C24.7637292,27.7303978 23.5378014,26.50447 22.0255428,26.50447 C20.5132842,26.50447 19.2873563,27.7303978 19.2873563,29.2426564 C19.2873563,30.7549151 20.5132842,31.9808429 22.0255428,31.9808429 Z M41.642401,34.3512133 C38.821023,34.3512133 36.5338442,32.0640345 36.5338442,29.2426564 C36.5338442,26.4212784 38.821023,24.1340996 41.642401,24.1340996 C44.4637791,24.1340996 46.7509579,26.4212784 46.7509579,29.2426564 C46.7509579,32.0640345 44.4637791,34.3512133 41.642401,34.3512133 Z M41.642401,31.9808429 C43.1546596,31.9808429 44.3805875,30.7549151 44.3805875,29.2426564 C44.3805875,27.7303978 43.1546596,26.50447 41.642401,26.50447 C40.1301424,26.50447 38.9042146,27.7303978 38.9042146,29.2426564 C38.9042146,30.7549151 40.1301424,31.9808429 41.642401,31.9808429 Z M27.9142803,39.2171137 C27.2631827,39.2171137 26.9011992,39.9702678 27.3079428,40.4786905 L31.0731525,45.185205 C31.3840048,45.5737695 31.9749871,45.5737695 32.2858383,45.1852064 L36.0510506,40.4786886 C36.4577861,39.9702711 36.0957995,39.2171137 35.4447017,39.2171137 L27.9142803,39.2171137 Z"/>
  </g>
  <g class="two" fill="#0F1126">
    <path d="M53.8567277,1.91977178 C55.3169622,0.702909683 57.5436719,1.61351402 57.7328085,3.50488007 L61.6561801,42.7385965 C61.6912027,43.0888228 61.6477906,43.4424529 61.529096,43.7738086 C58.4098443,52.4817196 41.2759938,63 31.8339719,63 C22.39195,63 5.25809947,52.4817196 2.13884778,43.7738086 C2.02015321,43.4424529 1.97674108,43.0888228 2.0117637,42.7385965 L5.93513534,3.50488007 C6.12427195,1.61351402 8.35098163,0.702909683 9.81121615,1.91977178 L20.5841133,10.897186 C21.2717507,10.6970977 22.1120874,10.4762869 23.0794646,10.2567401 C25.9408771,9.60734087 28.9041666,9.21711367 31.8339719,9.21711367 C34.7637617,9.21711367 37.7270472,9.60734082 40.5884649,10.2567399 C41.5558468,10.4762873 42.3961881,10.6970987 43.083829,10.8971874 L53.8567277,1.91977178 Z M45.121561,15.3701388 C44.4780417,15.9064049 43.5992617,16.0631967 42.8099922,15.7825685 C42.6744009,15.7343584 42.3863841,15.6396219 41.9651421,15.5136433 C41.2457816,15.2985079 40.4306357,15.0822175 39.539235,14.879914 C36.9983479,14.3032594 34.3754301,13.9578544 31.8339719,13.9578544 C29.2924981,13.9578544 26.6695775,14.3032594 24.1286965,14.8799138 C23.2372983,15.0822171 22.4221559,15.2985073 21.7027995,15.5136424 C21.2815602,15.6396208 20.9935458,15.7343571 20.8579561,15.7825669 C20.0686856,16.0631972 19.1899035,15.906406 18.5463828,15.3701388 L10.2078709,8.42137891 L6.78619691,42.6381192 C9.69620839,49.2999947 24.4588548,58.2592593 31.8339719,58.2592593 C39.209089,58.2592593 53.9717354,49.2999947 56.8817469,42.6381192 L53.4600729,8.42137891 L45.121561,15.3701388 Z"/>
  </g>
</svg>

<svg xmlns="http://www.w3.org/2000/svg" width="64" height="64"><path d="M33.02 47.55v2.252a2.738 2.738 0 1 0 5.476 0 1.185 1.185 0 0 1 2.37 0 5.109 5.109 0 0 1-8.95 3.368A5.109 5.109 0 0 1 22.802 50a1.185 1.185 0 0 1 2.37 0 2.738 2.738 0 1 0 5.477 0v-2.325a3.124 3.124 0 0 1-1.427-1.009l-3.765-4.707c-1.648-2.06-.181-5.112 2.457-5.112h7.53c2.64 0 4.106 3.052 2.458 5.112l-3.765 4.707a3.13 3.13 0 0 1-1.118.884ZM22.025 34.35a5.109 5.109 0 1 1 0-10.217 5.109 5.109 0 0 1 0 10.217Zm0-2.37a2.738 2.738 0 1 0 0-5.477 2.738 2.738 0 0 0 0 5.477Zm19.616 2.37a5.109 5.109 0 1 1 0-10.217 5.109 5.109 0 0 1 0 10.217Zm0-2.37a2.738 2.738 0 1 0 0-5.477 2.738 2.738 0 0 0 0 5.477Zm-13.728 7.236a.776.776 0 0 0-.606 1.262l3.765 4.706a.776.776 0 0 0 1.213 0l3.765-4.706a.777.777 0 0 0-.606-1.262h-7.53Z" class="one" fill="#0F1126"/><path d="M53.857 1.92c1.46-1.217 3.687-.306 3.876 1.585l3.923 39.234a2.37 2.37 0 0 1-.127 1.035C58.41 52.482 41.276 63 31.834 63S5.258 52.482 2.139 43.774a2.37 2.37 0 0 1-.127-1.035L5.935 3.505C6.125 1.614 8.351.703 9.811 1.92l10.773 8.977c.688-.2 1.528-.42 2.495-.64 2.862-.65 5.825-1.04 8.755-1.04 2.93 0 5.893.39 8.754 1.04.968.22 1.808.44 2.496.64L53.857 1.92Zm-8.735 13.45a2.37 2.37 0 0 1-2.312.413 19.594 19.594 0 0 0-.845-.27 37.41 37.41 0 0 0-2.426-.633c-2.54-.577-5.164-.922-7.705-.922-2.542 0-5.164.345-7.705.922-.892.202-1.707.419-2.426.634-.421.126-.71.22-.845.269a2.37 2.37 0 0 1-2.312-.413l-8.338-6.949-3.422 34.217C9.696 49.3 24.46 58.26 31.834 58.26S53.972 49.3 56.882 42.64L53.46 8.42l-8.338 6.95Z" class="two" fill="#0F1126"/></svg>
